X: 173
M: 3/4
L: 1/8
K: C
[|\
c d e2 (dc) | {A}G (F/E/) F3 G |
c d {f}e2 (dc) | e< g z2 za | g f e3 (d/c/) |
{A}G (F/E/) F3 (E/D/) | E F (Ge) (dc) |

